X:1
T:Title
%%score { ( 1 4 ) | ( 2 3 ) }
L:1/8
M:4/4
K:Bb
V:1 treble nm="Grand Piano"
V:4 treble 
V:2 bass 
V:3 bass 
V:1
 z4 z2[Q:1/4=100] F>E | [B,D]2 [B,D]2 [B,D]2 [CE]2 | [DF]>G [DF]>D [DF]2 [CE]>D | %3
 [A,C]2 [A,C]2 [G,B,]2 [A,C]2 | D6 [DF]>E | [B,D]2 [B,D]2 [B,D]2 [CE]2 | [DF]>G [DF]>D F2 GA | %7
 B2 G2 A2 [=EG]2 |[M:7/8] F-F-F- F- F3 |[M:1/4] A>B |[M:4/4] c6 z2 | B6 z2 | %12
 [B,EG]2 [=B,FG]2 [Ee][Fd]cB | c6[K:bass][K:treble] z2 | z4 B4 | c2 [GB]2 A2 G2 | %16
 F2 B2 cB [FAd]>[EAc] |[M:3/4] [DB]6 |] %18
V:2
 z4 z2 D>C | B,,2 F,,2 B,,2 F,,2 | z z/ E/ z z/ B,/ B,,2 z z/ B,/ | A,,2 F,,2 G,,2 F,,2 | %4
 B,6 A,,2 | B,,2 F,,2 B,,2 F,,2 | z z/ E/ z z/ B,/[K:treble] [B,D]2 [B,DF][A,DF] | %7
 [G,DF]2 [B,_DF]2 [CF]2[K:bass] [C,B,]2 |[M:7/8] A,2 A, B, C3 |[M:1/4] C>D |[M:4/4] E6 z2 | %11
 D2 [D,D]>[F,C] B,2 B,,2 | E,2 D,2 [C,C][D,=B,][E,CE][G,C=E] | [A,F]6 z2 | z4 F,4 | %15
 [E,G,E]2 [E,B,]2 [E,B,_D]4 | [F,B,D]2 [F,DF]2 [F,EF][F,D] F,>F, |[M:3/4] B,,6 |] %18
V:3
 x8 | x8 | B,,2 F,,2 z2 F,,2 | x8 | z2 (3B,,B,,B,, B,,2 z z/ C/ | x8 | B,,2 F,2[K:treble] z4 | %7
 x6[K:bass] x2 |[M:7/8] F,-F,-F,- F,- F,3 |[M:1/4] x2 |[M:4/4] z2 F,>F, F,2 D>C | x8 | x8 | %13
 .F,2 z2 z2 [D,B,][C,C] | [B,,D]2 [B,,B,]2 B,,2 C,D, | x8 | x8 |[M:3/4] x6 |] %18
V:4
 x8 | x8 | x8 | x8 | x8 | x8 | x8 | x8 |[M:7/8] z2 C D E3 |[M:1/4] x2 |[M:4/4] z2 A>A A2 B>A | %11
 z2 F>E D2 [B,DF]2 | x8 | z[K:bass] =E,F,G, F,_E,[K:treble][Fd][Fe] | [Bf]2 [Fd]2 D2 EF | x8 | x8 | %17
[M:3/4] x6 |] %18

